X:452
T: CA CA GESCHMAUSET
N: E1692A
O: Europa, Mitteleuropa, Deutschland
R: Staende -, Studenten - Lied, Trink -, Tafel - Lied
M: 3/4
L: 1/8
K: Bb
 | f2d2f2 | f2ede2
e2c2e2 | dcded2
f2d2f2 | b2agf2
g2f2=e2 | f4z2
f3ed2 | f3ed2 | b2a2g2 | g2f2z2
f2f2f2 | f3ed2 | f3ed2 | c2B2z2

